icons/vedic.svg

<svg id="SvgjsSvg1001" width="288" height="288" xmlns="http://www.w3.org/2000/svg" version="1.1" xmlns:xlink="http://www.w3.org/1999/xlink" xmlns:svgjs="http://svgjs.com/svgjs"><defs id="SvgjsDefs1002"></defs><g id="SvgjsG1008" transform="matrix(1,0,0,1,0,0)"><svg xmlns="http://www.w3.org/2000/svg" version="1.0" viewBox="0 -15 356 400" width="288" height="288"><path fill="#ff3d00" d="M 90.456847,353.9498 C 51.797347,340.13485 23.72672,305.75839 12.612487,258.6184 C 7.5684267,237.22321 6.1421397,201.86984 10.323594,201.86984 C 11.712834,201.86984 15.42322,211.57056 18.568972,223.427 C 25.452892,249.37152 37.19436,273.76855 48.535988,285.69407 C 67.374717,305.50242 114.0356,313.26029 140.92106,301.05394 C 161.86409,291.54544 170.35697,268.94603 161.24995,246.95931 C 154.21242,229.96943 138.24701,224.28836 108.50834,228.19197 C 108.50834,228.19197 90.282834,208.57398 84.476417,173.73548 L 103.15738,175.42939 C 125.65731,177.46962 142.64532,172.49605 151.46236,161.28728 C 159.74765,150.75419 159.5685,146.68046 150.34841,135.96157 C 137.04396,120.49428 113.15511,124.41248 64.786577,149.99522 L 40.381632,109.08518 L 50.613137,101.2812 C 76.253387,81.724339 120.77357,71.947329 146.11011,80.309169 C 169.18841,87.925649 186.12724,118.14755 181.60247,143.63298 C 178.54327,160.86286 164.72752,184.99524 154.05369,191.75339 L 144.84862,197.58162 L 157.56351,203.31522 C 179.17018,213.05833 192.36061,205.61034 208.12001,174.76849 C 229.92949,132.0869 244.0745,121.0378 276.96658,120.99051 C 292.28176,120.96847 297.73268,122.57499 308.90312,130.4031 C 336.78213,149.94016 351.9622,190.39693 348.62804,236.27272 C 344.40474,294.37435 316.88374,329.61601 275.73415,329.61601 C 253.15086,329.61601 238.59451,321.69526 227.00729,303.10156 C 216.82976,286.76927 212.24334,254.42288 218.08805,240.19369 C 220.89208,233.36732 221.39892,233.13578 221.58223,238.59686 C 221.91916,248.63689 233.34159,264.95549 243.82827,270.37835 C 269.55794,283.68369 306.49479,266.96693 321.10832,235.4032 C 332.20339,211.4394 326.25105,165.21656 311.02084,157.06552 C 307.83453,155.36024 299.96089,153.96502 293.5244,153.96502 C 279.84214,153.96502 269.09709,163.80155 254.03263,190.11774 C 248.82442,199.21613 240.05943,210.97175 234.55486,216.24128 C 225.61134,224.80312 222.41769,225.82225 204.53067,225.82225 L 184.51412,225.82225 L 190.98415,240.19369 C 200.2451,260.76437 199.80694,294.18704 190.00976,314.53347 C 181.35272,332.51252 161.33618,350.71469 145.33374,355.16013 C 129.75572,359.4876 104.38789,358.9281 90.456847,353.9498 z M 165.8338,75.923739 C 156.97908,60.814399 151.52974,32.606158 157.46546,32.606158 C 164.43775,47.732319 178.73037,61.227101 194.03409,70.643259 C 221.52091,83.949329 249.39257,78.578529 279.84247,54.108239 C 286.54595,48.721279 292.48231,44.913138 293.0345,45.645698 C 300.4697,57.184233 313.331,66.613261 317.58219,80.021449 C 317.58219,85.678729 293.22867,101.96033 274.01214,109.15007 C 226.38264,122.8706 193.96598,117.44304 165.8338,75.923739 z M 189.83603,40.997228 L 220.84514,6.6137488 L 255.30593,38.514418 C 243.51876,48.222549 235.00994,63.289118 221.54391,70.930009 C 210.90372,63.086273 195.02308,53.837816 189.83603,40.997228 z " class="colorff4500 svgShape"></path></svg></g></svg>

<svg xmlns="http://www.w3.org/2000/svg" viewBox="0 0 288 288"><svg xmlns="http://www.w3.org/2000/svg" version="1.0" viewBox="0 -15 356 400"><path fill="#ff3d00" d="M90.457 353.95c-38.66-13.815-66.73-48.192-77.845-95.332-5.044-21.395-6.47-56.748-2.288-56.748 1.389 0 5.1 9.7 8.245 21.557 6.884 25.945 18.625 50.342 29.967 62.267 18.839 19.808 65.5 27.566 92.385 15.36 20.943-9.509 29.436-32.108 20.329-54.095-7.038-16.99-23.003-22.67-52.742-18.767 0 0-18.225-19.618-24.032-54.457l18.681 1.694c22.5 2.04 39.488-2.933 48.305-14.142 8.286-10.533 8.107-14.607-1.114-25.325-13.304-15.468-37.193-11.55-85.561 14.033l-24.405-40.91 10.231-7.804c25.64-19.557 70.16-29.334 95.497-20.972 23.078 7.617 40.017 37.839 35.492 63.324-3.059 17.23-16.874 41.362-27.548 48.12l-9.205 5.829 12.715 5.733c21.606 9.743 34.797 2.295 50.556-28.547 21.81-42.681 35.954-53.73 68.847-53.777 15.315-.023 20.766 1.584 31.936 9.412 27.88 19.537 43.06 59.994 39.725 105.87-4.223 58.101-31.744 93.343-72.894 93.343-22.583 0-37.14-7.92-48.727-26.514-10.177-16.333-14.764-48.68-8.919-62.908 2.804-6.827 3.31-7.058 3.494-1.597.337 10.04 11.76 26.358 22.246 31.781 25.73 13.306 62.667-3.411 77.28-34.975 11.095-23.964 5.143-70.186-10.087-78.337-3.186-1.706-11.06-3.101-17.497-3.101-13.682 0-24.427 9.837-39.491 36.153-5.209 9.098-13.974 20.854-19.478 26.123-8.944 8.562-12.137 9.581-30.024 9.581h-20.017l6.47 14.372c9.261 20.57 8.823 53.993-.974 74.34-8.657 17.979-28.674 36.18-44.676 40.626-15.578 4.328-40.946 3.768-54.877-1.21zm75.377-278.026c-8.855-15.11-14.304-43.318-8.369-43.318 6.973 15.126 21.265 28.621 36.57 38.037 27.486 13.306 55.358 7.936 85.807-16.535 6.704-5.387 12.64-9.195 13.192-8.462 7.436 11.538 20.297 20.967 24.548 34.375 0 5.658-24.353 21.94-43.57 29.13-47.63 13.72-80.046 8.292-108.178-33.227zm24.002-34.927 31.01-34.383 34.46 31.9c-11.787 9.709-20.296 24.775-33.762 32.416-10.64-7.844-26.52-17.092-31.708-29.933z" class="colorff4500 svgShape"/></svg></svg>
